tools/download-figma-icons/icons/action/whatsapp.svg

<svg width="24" height="24" viewBox="0 0 24 24" fill="none" xmlns="http://www.w3.org/2000/svg">
<path fill-rule="evenodd" clip-rule="evenodd" d="M6.0369 3.3984C8.33247 1.76744 11.3042 1.14378 14.0864 1.69768C15.8887 2.05311 17.564 2.87689 18.9422 4.08517C20.8905 5.7859 22.1352 8.14765 22.4298 10.7104C22.6277 12.4019 22.4056 14.116 21.7837 15.7021C21.0483 17.5814 19.7461 19.2323 18.0966 20.399C16.5072 21.5276 14.6299 22.1869 12.6807 22.3024C10.7299 22.4211 8.78408 21.9934 7.06531 21.0658L1.5 22.5L2.96583 17.1612C2.99353 17.1015 2.95741 17.0509 2.92414 17.0044L2.91575 16.9926C1.81637 15.0402 1.3798 12.7864 1.67363 10.5667C2.06513 7.68177 3.63948 5.0875 6.02187 3.3984H6.0369ZM8.60484 4.23971C6.9943 4.96179 5.62446 6.2016 4.74973 7.7354C4.05673 8.93725 3.67227 10.3079 3.64319 11.6931C3.59553 13.3844 4.07611 15.0822 5.00415 16.5005C5.01385 16.5178 5.02504 16.5353 5.03644 16.5531L5.03645 16.5531C5.08195 16.6242 5.13062 16.7003 5.10027 16.7888L4.28207 19.7894C4.78157 19.6631 5.28088 19.5319 5.78064 19.4006C6.30639 19.2626 6.83265 19.1243 7.36019 18.9914C7.46168 18.9533 7.55171 19.0104 7.63693 19.0645L7.63696 19.0645C7.66025 19.0793 7.68317 19.0938 7.70588 19.1061C9.47957 20.1763 11.5844 20.5543 13.6198 20.169C14.8095 19.9413 15.9355 19.4583 16.9184 18.7507C18.4538 17.6474 19.5765 16.0611 20.1056 14.2454C20.5821 12.5896 20.5385 10.8273 19.9812 9.19733C19.4885 7.76448 18.617 6.49237 17.462 5.51425C16.2456 4.4804 14.7586 3.81729 13.1772 3.60002C11.6393 3.39325 10.0288 3.59517 8.60484 4.23971ZM9.39078 7.16543C9.30151 6.9831 9.16346 6.76098 8.93285 6.75601C7.87895 6.69717 7.46152 7.0668 6.98375 8.02902C6.67378 8.74923 6.6837 9.58298 6.9449 10.3131C7.20234 11.0906 7.68115 11.7564 8.15212 12.4112C8.18622 12.4586 8.22028 12.506 8.25422 12.5533C9.77845 14.5457 11.8945 16.2729 14.995 16.5C16.1952 16.461 17.3417 15.464 17.2442 14.1811C17.2582 14.0087 17.1103 13.9001 16.9632 13.8363L15.0736 12.923L15.0674 12.9204C14.7757 12.7992 14.5802 12.7179 14.3544 13.0125C14.0924 13.3689 13.8138 13.7128 13.5188 14.0435C13.4154 14.1711 13.2385 14.186 13.0906 14.1222C11.5267 13.5852 10.2306 12.463 9.47344 10.9886C9.39491 10.8709 9.38582 10.7076 9.48418 10.5949C9.5532 10.5106 9.62658 10.4284 9.70014 10.3461C9.91992 10.1001 10.1412 9.85244 10.2521 9.53823C10.3 9.39485 10.2612 9.24816 10.2025 9.11472C10.0809 8.83467 9.96765 8.55214 9.85447 8.26975C9.70605 7.89944 9.55773 7.52937 9.39078 7.16543Z" fill="black"/>
</svg>

<svg xmlns="http://www.w3.org/2000/svg" width="24" height="24" fill="none" viewBox="0 0 24 24"><path fill="currentColor" fill-rule="evenodd" d="M6.037 3.398c2.295-1.63 5.267-2.254 8.05-1.7a10.4 10.4 0 0 1 4.855 2.387 10.37 10.37 0 0 1 3.488 6.625 10.4 10.4 0 0 1-.646 4.992 10.47 10.47 0 0 1-3.687 4.697 10.4 10.4 0 0 1-5.416 1.903 10.5 10.5 0 0 1-5.616-1.236L1.5 22.5l1.466-5.339c.028-.06-.009-.11-.042-.157l-.008-.011a10.33 10.33 0 0 1-1.242-6.426 10.52 10.52 0 0 1 4.348-7.169zm2.568.842A8.45 8.45 0 0 0 4.75 7.735a8.3 8.3 0 0 0-1.107 3.958 8.4 8.4 0 0 0 1.393 4.86c.046.071.095.147.064.236l-.818 3q.75-.19 1.499-.388.788-.209 1.58-.41c.1-.038.19.02.276.073q.034.023.069.042a8.4 8.4 0 0 0 5.914 1.063 8.3 8.3 0 0 0 3.298-1.418 8.47 8.47 0 0 0 3.188-4.506 8.4 8.4 0 0 0-.125-5.048A8.41 8.41 0 0 0 13.177 3.6c-1.538-.207-3.148-.005-4.572.64m.786 2.925c-.09-.182-.228-.404-.458-.409-1.054-.059-1.471.31-1.95 1.273-.31.72-.3 1.554-.038 2.284.257.778.736 1.443 1.207 2.098l.102.142c1.524 1.993 3.64 3.72 6.741 3.947 1.2-.039 2.347-1.036 2.25-2.319.013-.172-.135-.28-.282-.345l-1.89-.913-.006-.003c-.291-.12-.487-.202-.713.092q-.393.535-.835 1.031c-.104.128-.28.143-.428.08a6.4 6.4 0 0 1-3.618-3.134c-.078-.118-.087-.281.011-.394q.106-.126.216-.249c.22-.246.441-.494.552-.808.048-.143.01-.29-.05-.423-.121-.28-.234-.563-.348-.845-.148-.37-.296-.74-.463-1.105" clip-rule="evenodd"/></svg>
